!!!COM:	Bach, Johann Sebastian
!!!CDT:	1685/02/21/-1750/07/28/
!!!OTL@@DE:	Heut ist, o Mensch, ein gro&szlig;er Trauertag
!!!SCT:	BWV 341
!!!PC#:	168
!!!AGN:	chorale
**kern	**kern	**kern	**kern
*ICvox	*ICvox	*ICvox	*ICvox
*Ibass	*Itenor	*Ialto	*Isoprn
*I"Bass	*I"Tenor	*I"Alto	*I"Soprano
*clefF4	*clefGv2	*clefG2	*clefG2
*k[b-]	*k[b-]	*k[b-]	*k[b-]
*g:dor	*g:dor	*g:dor	*g:dor
*M4/4	*M4/4	*M4/4	*M4/4
*met(c)	*met(c)	*met(c)	*met(c)
*MM100	*MM100	*MM100	*MM100
4GG	4G	4B-	4d
=1	=1	=1	=1
4D	8FL	8A	4f
.	8A	4f	.
8BB-L	8d	.	4g
8CJ	8cJ	8e	.
4F;	4c;	4f;	4a;
4G	4G	8dL	4b-
.	.	8eJ	.
=2	=2	=2	=2
4D	16ALL	4f#	4a
.	16B-JJ	.	.
.	4c	.	.
[4E	.	[4g	4g
.	16B-LL	.	.
.	16AJJ	.	.
8EL]	8GL	8gL]	4cc
8F#J	8dJ	[8aJ	.
4G	4d	8aL]	4b-
.	.	8gJ	.
=3	=3	=3	=3
2D;	2d;	2f#;	2a;
4r	4ry	4ryy	4r
4BB-	[4fnX	[4b-	4dd
=4	=4	=4	=4
4F	8.fL]	8b-L]	4cc
.	.	[8aJ	.
.	16e-Jk	.	.
4G	[4d	8aL]	4b-
.	.	[8gJ	.
4D	8.dL]	8gL]	4a
.	.	[8fJ	.
.	16cJk	.	.
4E-X	[4B-	8fL]	4g
.	.	[8e-J	.
=5	=5	=5	=5
8BB-L	4B-]	8e-L]	4f
8AAJ	.	8dJ	.
4GG	4B-	8e-L	4g
.	.	8dJ	.
8AAL	2F	8cL	4f
8GG	.	8B-J	.
8AA	.	8cL	4e-X
8FFJ	.	8AJ	.
=6	=6	=6	=6
2BB-;	2F;	2B-;	2d;
4r	4ry	4ry	4r
8FL	4F	4c	4a
8E-J	.	.	.
=7	=7	=7	=7
4D	4f	8dL	4b-
.	.	8fJ	.
4C	4e-	8gL	4cc
.	.	8aJ	.
4BB-;	4f;	4b-;	4dd;
4BB	4d	8gL	4dd
.	.	8fJ	.
=8	=8	=8	=8
8CL	4G	8e-L	4cc
8DJ	.	8fJ	.
4E-	4c	[4g	8gL
.	.	.	8aJ
8BB-XL	[4d	4.g]	4b-
8CJ	.	.	.
4D	8dL]	.	4a
.	8cJ	8f#	.
=9	=9	=9	=9
2.GG;	2.B;	2.d;	2.g;
==	==	==	==
*-	*-	*-	*-
!!!hum2abc: -Q ''
!!!title: @{PC#}. @{OTL@@DE}
!!!YOR1: 371 vierstimmige Choralges&auml;nge von Johann Sebastian Bach, 
!!!YOR2: 4th ed. by Alfred D&ouml;rffel (Leipzig: Breitkopf und H&auml;rtel, 
!!!YOR2: c.1875). 178 pp. Plate "V.A.10".  reprint: J.S. Bach, 371 Four-Part 
!!!YOR4: Chorales (New York: Associated Music Publishers, Inc., c.1940).
!!!SMS: B&H, 4th ed, Alfred D&ouml;rffel, c.1875, plate V.A.10
!!!EED:  Craig Stuart Sapp
!!!EEV:  2009/05/22
